public/img/old-svg/eye.svg

<svg width="18" height="18" viewBox="0 0 18 18" fill="none" xmlns="http://www.w3.org/2000/svg">
<g clip-path="url(#clip0)">
<path d="M9 3.63525C5.56091 3.63525 2.44216 5.51681 0.140841 8.57296C-0.0469469 8.82335 -0.0469469 9.17315 0.140841 9.42353C2.44216 12.4834 5.56091 14.3649 9 14.3649C12.4391 14.3649 15.5578 12.4834 17.8592 9.42721C18.0469 9.17683 18.0469 8.82703 17.8592 8.57665C15.5578 5.51681 12.4391 3.63525 9 3.63525ZM9.2467 12.7779C6.96379 12.9215 5.07855 11.04 5.22215 8.75339C5.33998 6.86815 6.86806 5.34007 8.7533 5.22224C11.0362 5.07864 12.9214 6.9602 12.7778 9.24679C12.6563 11.1283 11.1283 12.6564 9.2467 12.7779ZM9.13256 11.0326C7.90273 11.1099 6.88647 10.0974 6.96747 8.86753C7.03007 7.85127 7.85486 7.03016 8.87113 6.96388C10.101 6.88656 11.1172 7.89914 11.0362 9.12896C10.9699 10.1489 10.1451 10.97 9.13256 11.0326Z" fill="#C1C1C1"/>
</g>
<defs>
<clipPath id="clip0">
<rect width="18" height="18" fill="white"/>
</clipPath>
</defs>
</svg>

<svg width="18" height="18" viewBox="0 0 18 18" fill="none" xmlns="http://www.w3.org/2000/svg"><g clip-path="url(#clip0)"><path d="M9 3.635c-3.44 0-6.558 1.882-8.86 4.938a.713.713 0 000 .85c2.302 3.06 5.42 4.942 8.86 4.942 3.44 0 6.558-1.882 8.86-4.938a.713.713 0 000-.85C15.557 5.517 12.44 3.635 9 3.635zm.247 9.143a3.788 3.788 0 01-4.025-4.025 3.794 3.794 0 013.531-3.53 3.788 3.788 0 014.025 4.024 3.806 3.806 0 01-3.531 3.53zm-.114-1.745a2.035 2.035 0 01-2.166-2.165 2.047 2.047 0 011.904-1.904 2.035 2.035 0 012.165 2.165 2.047 2.047 0 01-1.903 1.904z" fill="#C1C1C1"/></g><defs><clipPath id="clip0"><path fill="#fff" d="M0 0h18v18H0z"/></clipPath></defs></svg>
